packages/foundations/assets/icons/functional/images/notification/check_circle_28.svg

<svg width="28" height="28" viewBox="0 0 28 28" fill="none" xmlns="http://www.w3.org/2000/svg">
<g clip-path="url(#clip0_187_148)">
<path fill-rule="evenodd" clip-rule="evenodd" d="M14 1.75C20.7539 1.75 26.25 7.24605 26.25 14C26.25 20.754 20.7539 26.25 14 26.25C7.24609 26.25 1.75 20.754 1.75 14C1.75 7.24605 7.24609 1.75 14 1.75ZM14 3.5C8.20312 3.5 3.5 8.20312 3.5 14C3.5 19.7969 8.20312 24.5 14 24.5C19.7969 24.5 24.5 19.7969 24.5 14C24.5 8.20312 19.7969 3.5 14 3.5ZM20.1011 9.24219C19.8789 9.24219 19.6602 9.32426 19.4961 9.48833L11.8672 17.1446L8.53125 13.8085C8.33377 13.6234 8.12514 13.5497 7.928 13.5497C7.44495 13.5497 7.03418 13.9463 7.03418 14.4375C7.03418 14.6631 7.12305 14.8886 7.30078 15.0665L11.2383 19.004L11.3203 19.0585C11.4854 19.1856 11.6799 19.2477 11.8711 19.2477C12.0916 19.2477 12.3076 19.165 12.4688 19.004L20.7266 10.746C20.9349 10.5377 21.0169 10.324 21.0169 10.1244C21.0169 9.65746 20.5969 9.24219 20.1011 9.24219Z" fill="#1A1C1F"/>
</g>
<defs>
<clipPath id="clip0_187_148">
<rect width="28" height="28" fill="white"/>
</clipPath>
</defs>
</svg>

<svg xmlns="http://www.w3.org/2000/svg" width="28" height="28" fill="none"><g clip-path="url(#a)"><path fill="#1A1C1F" fill-rule="evenodd" d="M14 1.75c6.754 0 12.25 5.496 12.25 12.25S20.754 26.25 14 26.25 1.75 20.754 1.75 14 7.246 1.75 14 1.75m0 1.75C8.203 3.5 3.5 8.203 3.5 14S8.203 24.5 14 24.5 24.5 19.797 24.5 14 19.797 3.5 14 3.5m6.101 5.742a.85.85 0 0 0-.605.246l-7.629 7.657-3.336-3.336a.87.87 0 0 0-.603-.26.897.897 0 0 0-.894.889c0 .225.09.45.267.628l3.937 3.938.082.054c.165.128.36.19.551.19.22 0 .437-.083.598-.244l8.258-8.258c.208-.208.29-.422.29-.622 0-.467-.42-.882-.916-.882" clip-rule="evenodd"/></g><defs><clipPath id="a"><path fill="#fff" d="M0 0h28v28H0z"/></clipPath></defs></svg>
